src/main/resources/icons/SwaggerIcons/icons/endpointGutter.svg

<svg width="12" height="12" viewBox="0 0 12 12" fill="none" xmlns="http://www.w3.org/2000/svg">
<path fill-rule="evenodd" clip-rule="evenodd" d="M5.20323 8.10476C4.35411 7.78302 3.75 6.96208 3.75 6C3.75 4.75725 4.758 3.75 6 3.75C6.96162 3.75 7.78296 4.35381 8.10479 5.20323C8.39224 5.13572 8.69194 5.1 8.99999 5.1C9.83654 5.1 10.6116 5.3634 11.2467 5.81177C11.1476 2.99945 8.83649 0.75 6 0.75C3.1005 0.75 0.75 3.1005 0.75 6C0.75 8.83648 2.99944 11.1476 5.81174 11.2467C5.36338 10.6116 5.09999 9.83655 5.09999 9C5.09999 8.69194 5.13571 8.39222 5.20323 8.10476Z" fill="#59A869"/>
<path fill-rule="evenodd" clip-rule="evenodd" d="M9 6C7.344 6 6 7.344 6 9C6 10.656 7.344 12 9 12C10.656 12 12 10.656 12 9C12 7.344 10.656 6 9 6ZM8.69999 11.379C7.51499 11.232 6.59999 10.224 6.59999 9C6.59999 8.814 6.62399 8.637 6.66299 8.463L8.09999 9.9V10.2C8.09999 10.53 8.36999 10.8 8.69999 10.8V11.379ZM10.2 10.2C10.47 10.2 10.692 10.374 10.77 10.617C11.16 10.191 11.4 9.624 11.4 9C11.4 7.995 10.779 7.134 9.89999 6.777V6.9C9.89999 7.23 9.62999 7.5 9.29999 7.5H8.69999V8.1C8.69999 8.265 8.56499 8.4 8.39999 8.4H7.79999V9H9.59999C9.76499 9 9.89999 9.135 9.89999 9.3V10.2H10.2Z" fill="#6E6E6E"/>
</svg>

<svg width="12" height="12" viewBox="0 0 12 12" fill="none" xmlns="http://www.w3.org/2000/svg"><rect id="frame" width="12" height="12" fill="none"/><path fill-rule="evenodd" clip-rule="evenodd" d="M5.203 8.105a2.251 2.251 0 1 1 2.902-2.902 3.911 3.911 0 0 1 3.142.609 5.25 5.25 0 1 0-5.435 5.435 3.911 3.911 0 0 1-.609-3.142z" fill="#59A869"/><path fill-rule="evenodd" clip-rule="evenodd" d="M9 6a3.001 3.001 0 0 0 0 6 3.001 3.001 0 0 0 0-6zm-.3 5.379a2.397 2.397 0 0 1-2.037-2.916L8.1 9.9v.3c0 .33.27.6.6.6v.579zm1.5-1.179c.27 0 .492.174.57.417.39-.426.63-.993.63-1.617a2.401 2.401 0 0 0-1.5-2.223V6.9c0 .33-.27.6-.6.6h-.6v.6a.3.3 0 0 1-.3.3h-.6V9h1.8a.3.3 0 0 1 .3.3v.9h.3z" fill="#6E6E6E"/></svg>
